X:1
T:Melton
T:Melton
T:Christopher Edwin Cumming Willing (1830-1904)
T:Public Domain Courtesy of the Cyber Hymnal™
C:Christopher Edwin Cumming Willing (1830-1904)
Z:Public Domain
Z:Courtesy of the Cyber Hymnal™
%%score ( 1 2 ) 3
L:1/8
Q:1/4=110
M:4/4
K:A
V:1 treble 
V:2 treble 
V:3 bass 
V:1
 [CE]2 E2 | ([EA]3 [EG]) [EA]2 [FB]2 | [EA]2 [EG]2 [EB]2 [Ec]2 | [Fd]2 [Fd]2 [Ec]2 [EB]2 | %4
 [Ec]4 [CE]2 E2 | [EA]3 [EG] [EA]2 [FB]2 | [Fc]4 [^EB]4 | [FA]4 [GB]4 | A4 |] %9
V:2
 x2 E2 | x8 | x8 | x8 | x6 E2 | x8 | x8 | x8 | A4 |] %9
V:3
 [A,,E,]2 [C,A,]2 | ([D,C]3 [D,B,]) [C,A,]2 [B,,D]2 | [E,C]2 [E,B,]2 [D,G,]2 [C,A,]2 | %3
 [B,,A,]2 [B,,A,]2 [E,A,]2 [E,G,]2 | [A,,A,]4 [A,,E,]2 [C,A,]2 | [E,C]3 [D,B,] [C,A,]2 [D,F,]2 | %6
 [C,G,]4 [C,C]4 | [F,C]4 [E,D]4 | [A,,C]4 |] %9

